assets/icons/JavaScript.svg

<svg width="32" height="32" viewBox="0 0 32 32" fill="none" xmlns="http://www.w3.org/2000/svg">
<path d="M3.00031 21.7468L6.01847 19.95C6.60068 20.9659 7.13073 21.8251 8.40133 21.8251C9.61884 21.8251 10.3869 21.3587 10.3869 19.533V7.13492H14.0935V19.5843C14.0935 23.3607 11.8433 25.08 8.56063 25.08C7.4001 25.1418 6.24776 24.8563 5.25539 24.2611C4.26301 23.666 3.47618 22.79 3.00031 21.7468ZM16.1075 21.355L19.1256 19.6356C19.4612 20.3054 19.9821 20.8685 20.6283 21.2601C21.2746 21.6517 22.0201 21.8559 22.7791 21.8494C24.3152 21.8494 25.2937 21.0938 25.2937 20.0517C25.2937 18.8016 24.2877 18.3585 22.5932 17.6262L21.6697 17.24C18.9957 16.1205 17.2216 14.7137 17.2216 11.7443C17.2216 9.0091 19.3399 6.92596 22.6492 6.92596C23.7214 6.8495 24.7929 7.08537 25.7297 7.60414C26.6666 8.12291 27.4275 8.90162 27.9174 9.8431L25.0311 11.6669C24.8416 11.1996 24.5123 10.7999 24.0868 10.5208C23.6613 10.2418 23.1596 10.0965 22.6482 10.1043C22.4253 10.0821 22.2001 10.1059 21.9871 10.1741C21.774 10.2424 21.5778 10.3536 21.4108 10.5006C21.2439 10.6476 21.1099 10.8273 21.0175 11.0281C20.9251 11.2289 20.8763 11.4465 20.8741 11.6669C20.8741 12.7612 21.5625 13.2034 23.1498 13.8807L24.0762 14.2715C27.2271 15.6 29.0003 16.9545 29.0003 20.0013C29.0003 23.2832 26.3794 25.0809 22.8587 25.0809C19.4167 25.0809 17.1932 23.4652 16.1075 21.355Z" fill="#EABD5F"/>
</svg>

<svg xmlns="http://www.w3.org/2000/svg" width="32" height="32" fill="none"><path fill="#EABD5F" d="m3 21.747 3.018-1.797c.583 1.016 1.113 1.875 2.383 1.875 1.218 0 1.986-.466 1.986-2.292V7.135h3.707v12.45c0 3.776-2.25 5.495-5.533 5.495a5.83 5.83 0 0 1-3.306-.819A5.7 5.7 0 0 1 3 21.747m13.108-.392 3.018-1.72c.335.67.856 1.233 1.502 1.625a4.1 4.1 0 0 0 2.151.59c1.536 0 2.515-.756 2.515-1.798 0-1.25-1.006-1.694-2.7-2.426l-.924-.386c-2.674-1.12-4.448-2.526-4.448-5.496 0-2.735 2.118-4.818 5.427-4.818a5.55 5.55 0 0 1 3.08.678 5.43 5.43 0 0 1 2.188 2.24l-2.886 1.823a2.5 2.5 0 0 0-.944-1.146 2.55 2.55 0 0 0-1.439-.417 1.64 1.64 0 0 0-1.237.397 1.59 1.59 0 0 0-.537 1.166c0 1.094.689 1.536 2.276 2.214l.926.39C27.227 15.6 29 16.955 29 20.002c0 3.282-2.62 5.08-6.141 5.08-3.442 0-5.666-1.616-6.751-3.726"/></svg>
